X: 51
T:V. Adeste Fideles
M:4/4
L:1/8
Q:100
C:Trad
R:Villancico.
K:DMin
F2 | F4 C2 F2 | G2 E2 C4 | A2 G2 A2 B2 | A4 G2 F2 | 
F4 E2 D2 | E2 F2 G2 AF | E4 D3 C |  C8 |:
c4 B2 A2 | B4 A4 | G2 A2 F2 G2 | E2 D2 C2 F2| 
F2 E2 F2 G2 | F4 C2 A2 | A2 G2 A2 B2 | A4 G2 A2 | B2 A2 G2 F2 | E4-F2 B2
 | A4 G3 F | F8 :|

